X: 3051
T: Bea Mae's
R: reel
M: 4/4
K: Dmajor
A,B,DF EFDB,|A,DFA dDcD|B3A BAFD|~E2ED B2Bd|
AD ~G,2 DB,A,B,|DEFA dcde|fd ~d2 gfec|1 dBAF D2 DB,:|2 dBAF D2 A2||
dA ~A2 fdec|defd AFDE|FBBA B2BA|FBBA FEEA|
dA ~A2 fdec|defd AFDF|GGBG FAdB|1 AFEF D2 A2:|2 AFEF D2 DB,||

